assets/stickers/emoticons/stickers/imgly_sticker_emoticons_chicken.svg

<svg height="55" viewBox="0 0 63 55" width="63" xmlns="http://www.w3.org/2000/svg"><g fill="none"><path d="m61.08 32.223c0 12.031-13.243 15.408-29.579 15.408s-29.581-3.377-29.581-15.408c0-12.033 13.244-21.787 29.58-21.787s29.58 9.753 29.58 21.787z" fill="#c6bd8b"/><path d="m61.08 32.223c0 12.031-13.243 15.408-29.579 15.408s-29.581-3.377-29.581-15.408c0-12.033 13.244-18.762 29.58-18.762s29.58 6.728 29.58 18.762z" fill="#b5ad74"/><path d="m61.08 32.223c0 12.031-13.243 15.408-29.579 15.408s-29.581-3.377-29.581-15.408c0-12.033 13.244-5.492 29.58-5.492s29.58-6.542 29.58 5.492z" fill="#9e945a"/><g fill="#082856"><ellipse cx="19.81" cy="29.918" rx="2.657" ry="2.657"/><ellipse cx="43.19" cy="29.918" rx="2.657" ry="2.657"/></g><g fill="#000" transform="translate(17 29)"><path d="m5.467.918c0 1.469-1.189 2.658-2.657 2.658s-2.657-1.189-2.657-2.658"/><path d="m28.847.918c0 1.469-1.189 2.658-2.656 2.658-1.468 0-2.657-1.189-2.657-2.658"/></g><g fill="#9e945a"><ellipse cx="7.5" cy="45.023" rx="4" ry="9.062"/><ellipse cx="13.5" cy="45.023" rx="4" ry="9.062"/><ellipse cx="19.5" cy="45.023" rx="4" ry="9.062"/><ellipse cx="25.5" cy="45.023" rx="4" ry="9.062"/><ellipse cx="31.5" cy="45.023" rx="4" ry="9.062"/><ellipse cx="37.5" cy="45.023" rx="4" ry="9.062"/><ellipse cx="43.5" cy="45.023" rx="4" ry="9.062"/><ellipse cx="49.5" cy="45.023" rx="4" ry="9.062"/><ellipse cx="55.5" cy="45.023" rx="4" ry="9.062"/></g><g fill="#9e945a"><ellipse cx="5.167" cy="38.336" rx="4.187" ry="12.188"/><ellipse cx="57.833" cy="38.336" rx="4.187" ry="12.188"/></g><path d="m27.93712 31.8387h7.123932v7.123932h-7.123932z" fill="#fcd827" transform="matrix(.70720678 -.70700677 .70700677 .70720678 -15.805792 32.635142)"/><path d="m36.539 35.398-5.039 5.038-5.038-5.038 5.038 1.145z" fill="#e0a624"/><path d="m30.726 20.127s1.5-5.334-7.5-8.459-1.5-8.625 3-5.5c0 0-1.578-1.064-2.126-2.875-.666-2.207 7.376-4.75 9.126 1.875 0 0-1.306-1.734-.626-2.875.834-1.395 4.331-1.105 6.084 1.293 2.376 3.25 1.042 6.582-2.208 7.832s-5.75 8.709-5.75 8.709z" fill="#b51063"/><path d="m32.6 2.293c-.186.314-.217.67-.172 1.025-2.629-4.201-8.921-1.99-8.328-.025.548 1.811 2.126 2.875 2.126 2.875-4.5-3.125-12 2.375-3 5.5.022.008.044.018.066.025 1.825.102 3.832.021 5.929-.281 4.516-.652 8.369-2.162 10.631-3.951.146-1.207-.197-2.547-1.168-3.875-1.753-2.398-5.25-2.688-6.084-1.293z" fill="#ce1d7e"/><g fill="#f27ec3"><path d="m26.434 7.305c0 .535-1.367.031-2.938.031s-2.75.504-2.75-.031 1.273-.969 2.844-.969 2.844.434 2.844.969z"/><path d="m29.899 2.445c-.002.439-.976.016-2.096.008-1.122-.008-1.967.4-1.965-.039.003-.441.916-.791 2.036-.783 1.123.008 2.029.373 2.025.814z"/><path d="m36.399 2.992c-.002.473-.66.021-1.418.016-.76-.006-1.333.436-1.33-.037.002-.471.622-.85 1.381-.846.759.006 1.371.395 1.367.867z"/></g></g></svg>

<?xml version="1.0" encoding="UTF-8"?>
<svg width="63px" height="55px" viewBox="0 0 63 55" version="1.1" xmlns="http://www.w3.org/2000/svg" xmlns:xlink="http://www.w3.org/1999/xlink">
    <!-- Generator: Sketch 43.1 (39012) - http://www.bohemiancoding.com/sketch -->
    <title>imgly_sticker_emoticons_chicken</title>
    <desc>Created with Sketch.</desc>
    <defs></defs>
    <g id="Page-1" stroke="none" stroke-width="1" fill="none" fill-rule="evenodd">
        <g id="chicken" fill-rule="nonzero">
            <path d="M61.08,32.223 C61.08,44.254 47.837,47.631 31.501,47.631 C15.165,47.631 1.92,44.254 1.92,32.223 C1.92,20.19 15.164,10.436 31.5,10.436 C47.836,10.436 61.08,20.189 61.08,32.223 Z" id="Shape" fill="#C6BD8B"></path>
            <path d="M61.08,32.223 C61.08,44.254 47.837,47.631 31.501,47.631 C15.165,47.631 1.92,44.254 1.92,32.223 C1.92,20.19 15.164,13.461 31.5,13.461 C47.836,13.461 61.08,20.189 61.08,32.223 Z" id="Shape" fill="#B5AD74"></path>
            <path d="M61.08,32.223 C61.08,44.254 47.837,47.631 31.501,47.631 C15.165,47.631 1.92,44.254 1.92,32.223 C1.92,20.19 15.164,26.731 31.5,26.731 C47.836,26.731 61.08,20.189 61.08,32.223 Z" id="Shape" fill="#9E945A"></path>
            <g id="Group" transform="translate(17.000000, 27.000000)" fill="#082856">
                <ellipse id="Oval" cx="2.81" cy="2.918" rx="2.657" ry="2.657"></ellipse>
                <ellipse id="Oval" cx="26.19" cy="2.918" rx="2.657" ry="2.657"></ellipse>
            </g>
            <g id="Group" transform="translate(17.000000, 29.000000)" fill="#000000">
                <path d="M5.467,0.918 C5.467,2.387 4.278,3.576 2.81,3.576 C1.342,3.576 0.153,2.387 0.153,0.918" id="Shape"></path>
                <path d="M28.847,0.918 C28.847,2.387 27.658,3.576 26.191,3.576 C24.723,3.576 23.534,2.387 23.534,0.918" id="Shape"></path>
            </g>
            <g id="Group" transform="translate(3.000000, 35.000000)" fill="#9E945A">
                <ellipse id="Oval" cx="4.5" cy="10.023" rx="4" ry="9.062"></ellipse>
                <ellipse id="Oval" cx="10.5" cy="10.023" rx="4" ry="9.062"></ellipse>
                <ellipse id="Oval" cx="16.5" cy="10.023" rx="4" ry="9.062"></ellipse>
                <ellipse id="Oval" cx="22.5" cy="10.023" rx="4" ry="9.062"></ellipse>
                <ellipse id="Oval" cx="28.5" cy="10.023" rx="4" ry="9.062"></ellipse>
                <ellipse id="Oval" cx="34.5" cy="10.023" rx="4" ry="9.062"></ellipse>
                <ellipse id="Oval" cx="40.5" cy="10.023" rx="4" ry="9.062"></ellipse>
                <ellipse id="Oval" cx="46.5" cy="10.023" rx="4" ry="9.062"></ellipse>
                <ellipse id="Oval" cx="52.5" cy="10.023" rx="4" ry="9.062"></ellipse>
            </g>
            <g id="Group" transform="translate(0.000000, 26.000000)" fill="#9E945A">
                <ellipse id="Oval" cx="5.167" cy="12.336" rx="4.187" ry="12.188"></ellipse>
                <ellipse id="Oval" cx="57.833" cy="12.336" rx="4.187" ry="12.188"></ellipse>
            </g>
            <rect id="Rectangle-path" fill="#FCD827" transform="translate(31.499086, 35.400666) rotate(-44.991897) translate(-31.499086, -35.400666) " x="27.9371201" y="31.8386997" width="7.12393175" height="7.12393175"></rect>
            <polygon id="Shape" fill="#E0A624" points="36.539 35.398 31.5 40.436 26.462 35.398 31.5 36.543"></polygon>
            <path d="M30.726,20.127 C30.726,20.127 32.226,14.793 23.226,11.668 C14.226,8.543 21.726,3.043 26.226,6.168 C26.226,6.168 24.648,5.104 24.1,3.293 C23.434,1.086 31.476,-1.457 33.226,5.168 C33.226,5.168 31.92,3.434 32.6,2.293 C33.434,0.898 36.931,1.188 38.684,3.586 C41.06,6.836 39.726,10.168 36.476,11.418 C33.226,12.668 30.726,20.127 30.726,20.127 Z" id="Shape" fill="#B51063"></path>
            <path d="M32.6,2.293 C32.414,2.607 32.383,2.963 32.428,3.318 C29.799,-0.883 23.507,1.328 24.1,3.293 C24.648,5.104 26.226,6.168 26.226,6.168 C21.726,3.043 14.226,8.543 23.226,11.668 C23.248,11.676 23.27,11.686 23.292,11.693 C25.117,11.795 27.124,11.714 29.221,11.412 C33.737,10.76 37.59,9.25 39.852,7.461 C39.998,6.254 39.655,4.914 38.684,3.586 C36.931,1.188 33.434,0.898 32.6,2.293 Z" id="Shape" fill="#CE1D7E"></path>
            <path d="M26.434,7.305 C26.434,7.84 25.067,7.336 23.496,7.336 C21.925,7.336 20.746,7.84 20.746,7.305 C20.746,6.77 22.019,6.336 23.59,6.336 C25.161,6.336 26.434,6.77 26.434,7.305 Z" id="Shape" fill="#F27EC3"></path>
            <path d="M29.899,2.445 C29.897,2.884 28.923,2.461 27.803,2.453 C26.681,2.445 25.836,2.853 25.838,2.414 C25.841,1.973 26.754,1.623 27.874,1.631 C28.997,1.639 29.903,2.004 29.899,2.445 Z" id="Shape" fill="#F27EC3"></path>
            <path d="M36.399,2.992 C36.397,3.465 35.739,3.013 34.981,3.008 C34.221,3.002 33.648,3.444 33.651,2.971 C33.653,2.5 34.273,2.121 35.032,2.125 C35.791,2.131 36.403,2.52 36.399,2.992 Z" id="Shape" fill="#F27EC3"></path>
        </g>
    </g>
</svg>
